packages/core/src/svgs/tokens/mono/SXP.svg

<svg width="24" height="24" viewBox="0 0 24 24" fill="none" xmlns="http://www.w3.org/2000/svg">
<path d="M11.9441 2.00171C11.7568 2.00171 11.563 2.0142 11.3694 2.03919C10.4708 2.13867 9.63311 2.54206 8.99512 3.18257L7.58935 4.5946L6.86457 5.3131L6.10232 6.06286L5.40257 6.76888L4.30917 7.85602L3.47819 8.72449C3.31576 8.89318 3.14081 9.04937 2.9846 9.22439C2.30937 10.0355 1.95976 11.0689 2.00369 12.1233C1.97869 12.5858 2.16612 13.1855 2.44104 13.7478C2.59098 14.0602 2.79717 14.3352 2.99086 14.61C3.1283 14.7975 3.22203 14.7975 3.40323 14.6537L3.49694 14.5601L4.02176 14.0165L4.79026 13.2293L5.5775 12.392C5.70246 12.2671 5.83992 12.1421 5.96488 12.0047L6.7771 11.1488C7.03952 10.8738 7.31442 10.6114 7.58935 10.3364L8.4703 9.41172L9.30757 8.58078C9.66985 8.2184 10.0197 7.83727 10.3822 7.46865L11.0445 6.80637L11.9441 5.89417C12.2004 5.63176 12.4689 5.38184 12.7313 5.12567L14.4621 3.38875L14.5682 3.26379C14.7057 3.0951 14.7182 3.05136 14.5433 2.9264C14.2683 2.7327 13.9935 2.52654 13.6874 2.38282C13.1375 2.12666 12.5627 2.00795 11.9692 2.00795H11.9441V2.00171ZM16.3927 5.61927C15.8554 5.638 15.3868 5.8067 15.0369 6.24406L14.9432 6.33153L14.0059 7.23747L13.0438 8.19966L12.2441 8.99314C11.9692 9.26812 11.7005 9.55547 11.4193 9.83042L10.5384 10.6863L9.48251 11.736L7.53936 13.6791L4.9652 16.2533C4.80276 16.4157 4.79651 16.4408 4.9652 16.6094L6.2023 17.859C6.45221 18.1088 6.75836 18.2838 7.10824 18.3463C7.44563 18.4089 7.78928 18.4089 8.12041 18.3151C8.36408 18.24 8.59527 18.1402 8.7827 17.959L9.80105 16.978C10.0385 16.753 10.2821 16.5282 10.5196 16.2907L11.9254 14.8975L13.0938 13.7729L14.687 12.2171L16.1864 10.7613C16.4051 10.5488 16.6114 10.5739 16.7738 10.8238C17.055 11.28 17.2174 11.7734 17.1486 12.3233C17.1078 12.7779 16.9216 13.2074 16.6177 13.5479C16.2427 13.9416 15.8554 14.3101 15.468 14.6913L14.6433 15.4972L13.5937 16.5469C13.5374 16.6094 13.4874 16.6718 13.4311 16.7218L13.0875 17.078L12.3065 17.8527C12.0316 18.1276 11.763 18.415 11.4943 18.6962L11.4131 18.7587L10.5384 19.6209C10.3947 19.7521 10.2635 19.8896 10.126 20.0271C9.89479 20.2581 9.65746 20.4894 9.43251 20.733C9.29503 20.8767 9.29503 20.9642 9.45744 21.0767C9.73239 21.2766 10.0136 21.4765 10.3135 21.6202C10.8758 21.8826 11.4569 21.9952 12.0629 21.9952H12.0692C13.091 22.0358 14.0877 21.6723 14.8432 20.983C15.2931 20.5894 15.6992 20.1395 16.124 19.7147L17.0674 18.7649L17.9547 17.8778C18.2234 17.6028 18.492 17.3279 18.7668 17.0654C19.0669 16.7593 19.3791 16.472 19.6853 16.1721C19.9977 15.8597 20.2976 15.5535 20.5976 15.2348C21.1074 14.7639 21.4977 14.1782 21.7356 13.5261C21.9737 12.8741 22.0526 12.1748 21.9658 11.4861C21.8743 10.8793 21.6527 10.2997 21.316 9.78668C21.1286 9.49293 21.0287 9.36799 20.4539 8.80571C19.6104 7.96224 18.7607 7.11877 17.9297 6.25655C17.7369 6.0428 17.4989 5.8747 17.233 5.76445C16.9673 5.65421 16.6801 5.60461 16.3927 5.61927Z" fill="white"/>
</svg>

<svg xmlns="http://www.w3.org/2000/svg" width="24" height="24" fill="none" viewBox="0 0 24 24">
    <path fill="#fff" d="M11.944 2.002q-.282 0-.575.037a3.97 3.97 0 0 0-2.374 1.144L7.59 4.595l-.724.718-.763.75-.7.706L4.31 7.856l-.83.868c-.163.17-.338.325-.494.5a4.26 4.26 0 0 0-.981 2.9c-.025.462.162 1.061.437 1.624.15.312.356.587.55.862.137.188.231.188.412.044l.094-.094.525-.543.768-.788.787-.837c.125-.125.263-.25.388-.387l.812-.856c.263-.275.537-.538.812-.813l.881-.924.838-.831c.362-.363.712-.744 1.074-1.112l.662-.663.9-.912c.256-.262.525-.512.787-.768l1.731-1.737.106-.125c.138-.169.15-.213-.025-.338-.275-.193-.55-.4-.856-.543a4 4 0 0 0-1.718-.375h-.025zm4.449 3.617c-.538.019-1.006.188-1.356.625l-.094.088-.937.905-.962.963-.8.793c-.275.275-.543.562-.825.837l-.88.856-1.056 1.05-1.944 1.943-2.574 2.574c-.162.163-.168.188 0 .356l1.237 1.25c.25.25.556.425.906.487.338.063.681.063 1.012-.03.244-.076.475-.176.663-.357l1.018-.981c.238-.225.481-.45.719-.687l1.405-1.393 1.169-1.125 1.593-1.556 1.5-1.456c.218-.212.424-.187.587.063.281.456.443.95.375 1.5a2.13 2.13 0 0 1-.531 1.224c-.375.394-.763.762-1.15 1.143l-.825.806-1.05 1.05c-.056.062-.106.125-.162.175l-.343.356-.781.775c-.275.275-.544.562-.813.843l-.08.063-.876.862c-.143.131-.274.269-.412.406-.231.231-.469.462-.693.706-.138.144-.138.231.024.344.275.2.557.4.856.543a4.1 4.1 0 0 0 1.75.375h.006a3.9 3.9 0 0 0 2.774-1.012c.45-.394.856-.843 1.281-1.268l.943-.95.888-.887c.268-.275.537-.55.812-.813.3-.306.612-.593.918-.893.313-.312.613-.619.913-.937a4.36 4.36 0 0 0 1.368-3.749 4.25 4.25 0 0 0-.65-1.7c-.187-.293-.287-.418-.862-.98-.844-.844-1.693-1.687-2.524-2.55a1.94 1.94 0 0 0-1.537-.637"/>
</svg>
